X:30
T:Isabel
R:march
C:Paul S. Cranford and Gordon MacLean
O:20th Century Cape Breton
D:The Lighthouse, Cranford Publications
B:The Lighthouse Collection, ISBN 0-9691181-5-5
N:Contacts ...
N:..... Cranford Publications <http://www.cranfordpub.com>
H:Composed for Isabel MacKinnon, Port Hawkesbury
Z:This abc transcription is for personal use only,
Z:provided this notice remains attached.
Z:Used by permission of the composer and publisher.
Z:Paul Stewart Cranford 
Q:288
L:1/8
M:C|
K:A
P:A
AB|c>BA<c e2 c<e|f>ed<f e2 c<A|a2 e<c f>de>A|c2 B2 B2 A<B|!
c>BA<c e2 c<e|f>ed<f e2 c<A|a2 e<c f>de>B|c2 A2 A2:|!
P:B
|:fg|a2 A<c e2 c<e|a>fd<f e2 c<A|a2 e<c f>de>A|c2 B2 B2 f<g|!
a2 A<c e2 c<e|a>fd<f e2 c<A|a2 e<c f>de>B|c2 A2 A2:|!
P:C
|:ed| c<ee>c d>cB<c|A/A/A a>c e2 c<A|a2 e<c f>de>A|c2 B2 B2 ed|!
 c<ee>c d>cB<c|A/A/A a>c e2 c<A|a2 e<c f>de>B|c2 A2 A2:|!
P:D
|:fg|a>ec<e A/A/A c<e|a>fd<f e2 c<A|a2 e<c f>de>A|[1c2 B2 B2 fg|!
a>ec<e A/A/A c<e|a>fd<f e2 c<A|a2 e<c f>de>B|c2 A2 A2:|!
[2c2 B2 B2 ed|c<ee>c d<ff>d|c<eB>c A2 (3(efg)|a>ef<d e>cd<B|c2 A2 A2|]!
